src/assets/images/game-edition/eckodex_game_loading.svg

<svg width="168" height="27" viewBox="0 0 168 27" fill="none" xmlns="http://www.w3.org/2000/svg">
<path d="M18.9824 0H21.5723V2.61523V5.20508H18.9824H16.3672H13.7773H11.1621H8.57227H5.98242V7.82031V10.4102H8.57227H11.1621H13.7773H16.3672H18.9824V13H16.3672V15.6152H13.7773H11.1621H8.57227H5.98242V18.2051V20.7949H8.57227H11.1621H13.7773H16.3672H18.9824H21.5723V23.4102V26H18.9824H16.3672H13.7773H11.1621H8.57227H5.98242H3.36719H0.777344V23.4102V20.7949V18.2051V15.6152V13V10.4102V7.82031V5.20508V2.61523V0H3.36719H5.98242H8.57227H11.1621H13.7773H16.3672H18.9824ZM43.3574 2.61523H45.9473V5.20508V7.82031H43.3574H40.7422V5.20508H38.1523H35.5625H32.9473H30.3574V7.82031V10.4102V13V15.6152V18.2051V20.7949H32.9473H35.5625H38.1523H40.7422V18.2051H43.3574H45.9473V20.7949V23.4102H43.3574V26H40.7422H38.1523H35.5625H32.9473H30.3574H27.7676V23.4102H25.1523V20.7949V18.2051V15.6152V13V10.4102V7.82031V5.20508V2.61523H27.7676V0H30.3574H32.9473H35.5625H38.1523H40.7422H43.3574V2.61523ZM59.9121 10.4355V13.0254V15.6152H62.5273V18.2305H65.1172V20.8203H67.707V23.4355H70.3223V26.0254H67.707H65.1172H62.5273V23.4355H59.9121V20.8203H57.3223V18.2305H54.7324V20.8203V23.4355V26.0254H52.1172H49.5273V23.4355V20.8203V18.2305V15.6152V13.0254V10.4355V7.82031V5.23047V2.64062V0.0253906H52.1172H54.7324V2.64062V5.23047V7.82031H57.3223V5.23047H59.9121V2.64062H62.5273V0.0253906H65.1172H67.707H70.3223V2.64062H67.707V5.23047H65.1172V7.82031H62.5273V10.4355H59.9121ZM92.1074 2.64062H94.6973V5.23047V7.82031V10.4355V13.0254V15.6152V18.2305V20.8203V23.4355H92.1074V26.0254H89.5176H86.9023H84.3125H81.6973H79.1074H76.5176V23.4355H73.9023V20.8203V18.2305V15.6152V13.0254V10.4355V7.82031V5.23047V2.64062H76.5176V0.0253906H79.1074H81.6973H84.3125H86.9023H89.5176H92.1074V2.64062ZM89.5176 7.82031V5.23047H86.9023H84.3125H81.6973H79.1074V7.82031V10.4355V13.0254V15.6152V18.2305V20.8203H81.6973H84.3125H86.9023H89.5176V18.2305V15.6152V13.0254V10.4355V7.82031Z" fill="white"/>
<path d="M116.482 5.20508H119.072V7.82031V10.4102V13V15.6152V18.2051V20.7949H116.482V23.4102H113.867V26H111.277H108.688H106.072H103.482H100.893H98.2773V23.4102V20.7949V18.2051V15.6152V13V10.4102V7.82031V5.20508V2.61523V0H100.893H103.482H106.072H108.688H111.277H113.867V2.61523H116.482V5.20508ZM113.867 7.82031V5.20508H111.277H108.688H106.072H103.482V7.82031V10.4102V13V15.6152V18.2051V20.7949H106.072H108.688H111.277H113.867V18.2051V15.6152V13V10.4102V7.82031ZM140.857 0H143.447V2.61523V5.20508H140.857H138.242H135.652H133.037H130.447H127.857V7.82031V10.4102H130.447H133.037H135.652H138.242H140.857V13H138.242V15.6152H135.652H133.037H130.447H127.857V18.2051V20.7949H130.447H133.037H135.652H138.242H140.857H143.447V23.4102V26H140.857H138.242H135.652H133.037H130.447H127.857H125.242H122.652V23.4102V20.7949V18.2051V15.6152V13V10.4102V7.82031V5.20508V2.61523V0H125.242H127.857H130.447H133.037H135.652H138.242H140.857ZM165.232 0.0253906H167.822V2.64062V5.23047V7.82031H165.232V10.4355H162.643V13.0254H160.027V15.6152H162.643V18.2305H165.232V20.8203H167.822V23.4355V26.0254H165.232H162.643V23.4355H160.027V20.8203H157.438H154.822V23.4355H152.232V26.0254H149.643H147.027V23.4355V20.8203H149.643V18.2305H152.232V15.6152H154.822V13.0254H152.232V10.4355H149.643V7.82031H147.027V5.23047V2.64062V0.0253906H149.643H152.232V2.64062V5.23047H154.822V7.82031H157.438H160.027V5.23047H162.643V2.64062V0.0253906H165.232Z" fill="#FF00B8"/>
</svg>

<svg xmlns="http://www.w3.org/2000/svg" xmlns:xlink="http://www.w3.org/1999/xlink" width="167.544" height="27.025" viewBox="0 0 167.544 27.025">
  <defs>
    <linearGradient id="linear-gradient" x1="-0.203" y1="-0.134" x2="0.613" y2="0.678" gradientUnits="objectBoundingBox">
      <stop offset="0" stop-color="#ffd300"/>
      <stop offset="1" stop-color="#ff00b8"/>
    </linearGradient>
  </defs>
  <g id="eckodex_game_loading" transform="translate(-0.777 0.5)">
    <path id="Path_143814" data-name="Path 143814" d="M18.982,0h2.59V5.205H5.982V10.41h13V13H16.367v2.615H5.982v5.18h15.59V26H.777V0H18.982ZM43.357,2.615h2.59V7.82H40.742V5.205H30.357v15.59H40.742v-2.59h5.205V23.41h-2.59V26H27.768V23.41H25.152V2.615h2.615V0h15.59Zm16.555,7.82v5.18h2.615V18.23h2.59v2.59h2.59v2.615h2.615v2.59h-7.8v-2.59H59.912V20.82h-2.59V18.23h-2.59v7.795H49.527v-26h5.205V7.82h2.59V5.23h2.59V2.641h2.615V.025h7.8V2.641H67.707V5.23h-2.59V7.82h-2.59v2.615Zm32.2-7.795H94.7V23.435h-2.59v2.59H76.518v-2.59H73.9V2.641h2.615V.025h15.59Zm-2.59,5.18V5.23H79.107V20.82h10.41v-13Z" fill="#fff"/>
    <path id="Path_143815" data-name="Path 143815" d="M116.482,5.205h2.59v15.59h-2.59V23.41h-2.615V26H98.277V0h15.59V2.615h2.615ZM113.867,7.82V5.205H103.482v15.59h10.385V7.82ZM140.857,0h2.59V5.205h-15.59V10.41h13V13h-2.615v2.615H127.857v5.18h15.59V26h-20.8V0h18.2Zm24.375.025h2.59V7.82h-2.59v2.615h-2.589v2.59h-2.616v2.59h2.616V18.23h2.589v2.59h2.59v5.205h-5.179v-2.59h-2.616V20.82h-5.2v2.615h-2.59v2.59h-5.205V20.82h2.616V18.23h2.589V15.615h2.59v-2.59h-2.59v-2.59h-2.589V7.82h-2.616V.025h5.205V5.23h2.59V7.82h5.2V5.23h2.616V.025Z" stroke="rgba(0,0,0,0)" stroke-miterlimit="10" stroke-width="1" fill="url(#linear-gradient)"/>
  </g>
</svg>
